X:20
T: Now She's Purring!
S: "Treoir"
Z: B.Black
M: 4/4
L: 1/8
R: reel
K: G
d |G3 A Bdgd |B2 BG AE E2 |GBAF GABd |(3efg fa gedB |
G3 A Bdgd |BABG AE E2 | GBAF GABd | (3efg fa g3 z ||
g3 a bgaf |gaba gfed |B3 A GABd |(3efg fa gfed |
gaba gfed |gbaf gfed |BdAB GABd |(3efg fa g3 z ||
